src/lib/packages/icons/src/assets/filled/amazon-pay.svg

<svg width="24" height="24" viewBox="0 0 24 24" fill="none" xmlns="http://www.w3.org/2000/svg">
<path d="M18 5H6C4 5 3 6 3 8V16C3 18 4 19 6 19H18C20 19 21 18 21 16V8C21 6 20 5 18 5ZM14.28 7.73999C14.46 7.73999 14.63 7.73999 14.8 7.73999C14.87 7.73999 14.92 7.78001 14.95 7.85001C15 7.98001 15.05 8.10999 15.09 8.23999C15.39 9.05999 15.68 9.88 15.98 10.69C15.98 10.7 15.99 10.72 16 10.74C16.06 10.56 16.12 10.4 16.18 10.23L16.98 7.94C16.98 7.94 17 7.88001 17.02 7.85001C17.05 7.77001 17.11 7.73001 17.2 7.73001C17.35 7.73001 17.5 7.73001 17.66 7.73001C17.73 7.73001 17.76 7.76999 17.74 7.82999C17.74 7.86999 17.72 7.90999 17.7 7.95999C17.16 9.32999 16.62 10.7 16.08 12.07C16.02 12.21 15.95 12.36 15.87 12.49C15.67 12.83 15.36 12.99 14.97 12.98C14.84 12.98 14.71 12.96 14.58 12.93C14.45 12.91 14.41 12.85 14.41 12.72C14.41 12.65 14.41 12.57 14.41 12.49C14.41 12.41 14.45 12.38 14.53 12.38C14.59 12.38 14.64 12.4 14.7 12.4C14.82 12.41 14.94 12.4 15.05 12.38C15.21 12.33 15.33 12.22 15.4 12.07C15.48 11.9 15.54 11.73 15.61 11.56C15.65 11.46 15.64 11.39 15.61 11.29C15.16 10.18 14.71 9.06999 14.26 7.95999C14.24 7.90999 14.23 7.87001 14.22 7.82001C14.21 7.76001 14.24 7.72 14.3 7.72L14.28 7.73999ZM10.85 9.92999C10.99 9.63999 11.23 9.46999 11.52 9.35999C11.77 9.27999 12.02 9.25999 12.28 9.26999C12.53 9.27999 12.77 9.32 13.01 9.38C13.01 9.38 13.03 9.38 13.04 9.38C13.04 9.37 13.04 9.36001 13.04 9.35001C13.04 9.16001 13.04 8.97 13.04 8.78C13.04 8.65 13 8.51 12.92 8.41C12.82 8.28 12.68 8.24 12.53 8.22C12.25 8.18 11.96 8.2 11.68 8.25C11.5 8.29 11.32 8.33 11.14 8.38C11.03 8.41 10.99 8.37999 10.98 8.26999C10.98 8.19999 10.98 8.12001 10.98 8.04001C10.98 7.95001 11.02 7.88999 11.1 7.85999C11.24 7.80999 11.37 7.76001 11.51 7.73001C11.73 7.67001 11.95 7.65 12.17 7.63C12.19 7.63 12.22 7.63 12.24 7.63H12.51C12.59 7.64 12.68 7.65 12.76 7.66C12.93 7.68 13.1 7.73001 13.26 7.82001C13.53 7.98001 13.65 8.22001 13.69 8.51001C13.7 8.61001 13.71 8.71 13.71 8.81V11.24C13.71 11.24 13.71 11.28 13.71 11.3C13.71 11.36 13.66 11.4 13.6 11.41C13.47 11.41 13.35 11.41 13.23 11.41C13.16 11.41 13.12 11.36 13.11 11.29C13.09 11.21 13.08 11.13 13.07 11.04C13.05 11.05 13.04 11.06 13.03 11.07C12.76 11.29 12.45 11.44 12.11 11.49C11.81 11.53 11.51 11.51 11.24 11.36C10.96 11.2 10.79 10.95 10.75 10.63C10.72 10.39 10.73 10.15 10.84 9.92001L10.85 9.92999ZM6.83002 7.92999C6.83002 7.76999 6.86002 7.73999 7.02002 7.73999H7.28998C7.39998 7.73999 7.44997 7.79001 7.46997 7.89001C7.47997 7.95001 7.49 8.01999 7.5 8.07999C7.5 8.08999 7.50001 8.09999 7.51001 8.10999C7.56001 8.06999 7.61998 8.02999 7.66998 7.98999C7.92998 7.79999 8.21998 7.68001 8.53998 7.64001C8.56998 7.64001 8.61001 7.64 8.64001 7.63H8.83002C8.90002 7.64 8.97999 7.65 9.04999 7.66C9.53999 7.76 9.85999 8.06 10.05 8.5C10.21 8.86 10.25 9.25001 10.24 9.64001C10.23 9.99001 10.16 10.33 10 10.65C9.79 11.07 9.46 11.36 9 11.45C8.48 11.55 8.00998 11.44 7.59998 11.1C7.58998 11.09 7.56999 11.08 7.54999 11.06V12.72C7.54999 12.72 7.54999 12.77 7.54999 12.79C7.54999 12.86 7.51 12.9 7.44 12.9C7.28 12.9 7.12002 12.9 6.96002 12.9C6.89002 12.9 6.84998 12.85 6.84998 12.79C6.84998 12.77 6.84998 12.74 6.84998 12.72V7.92999H6.83002ZM17.72 14.6C17.66 14.67 17.58 14.72 17.5 14.77C16.8 15.25 16.03 15.6 15.22 15.87C14.66 16.05 14.09 16.18 13.5 16.27C13.1 16.33 12.69 16.37 12.28 16.38C12.26 16.38 12.24 16.38 12.22 16.38H11.74C11.74 16.38 11.7 16.38 11.68 16.38C11.6 16.38 11.52 16.38 11.43 16.37C11.04 16.35 10.66 16.31 10.28 16.25C9.65003 16.15 9.04 15.99 8.44 15.77C7.2 15.32 6.08998 14.66 5.09998 13.78C5.05998 13.74 5.03 13.69 5 13.65V13.6C5.05 13.5 5.11997 13.49 5.21997 13.54C5.45997 13.67 5.68999 13.8 5.92999 13.92C6.85999 14.39 7.83998 14.74 8.84998 14.98C9.32998 15.09 9.80999 15.19 10.3 15.25C11.02 15.35 11.75 15.39 12.48 15.37C12.88 15.36 13.28 15.33 13.67 15.28C14.96 15.13 16.21 14.8 17.41 14.3C17.48 14.27 17.54 14.25 17.62 14.27C17.77 14.31 17.83 14.48 17.71 14.6H17.72ZM19 13.91C18.99 13.99 18.97 14.08 18.95 14.16C18.85 14.62 18.68 15.06 18.38 15.43C18.3 15.54 18.19 15.64 18.09 15.74C18.06 15.77 18.02 15.79 17.98 15.8C17.91 15.81 17.88 15.77 17.89 15.7C17.89 15.68 17.9 15.65 17.91 15.63C18.05 15.29 18.18 14.95 18.27 14.6C18.32 14.43 18.36 14.25 18.35 14.07C18.35 13.95 18.29 13.86 18.18 13.83C18.07 13.8 17.96 13.78 17.85 13.77C17.59 13.75 17.33 13.77 17.06 13.79L16.53 13.85C16.53 13.85 16.5 13.85 16.48 13.85C16.44 13.85 16.41 13.85 16.4 13.81C16.4 13.78 16.4 13.74 16.41 13.72C16.43 13.69 16.46 13.66 16.49 13.64C16.77 13.45 17.08 13.34 17.41 13.28C17.71 13.23 18.01 13.21 18.31 13.24C18.47 13.25 18.64 13.28 18.79 13.33C18.89 13.36 18.98 13.41 19 13.52C19 13.65 19 13.79 19 13.92V13.91ZM11.49 10.61C11.44 10.46 11.44 10.31 11.49 10.17C11.54 9.98001 11.68 9.87 11.86 9.81C12.05 9.75 12.24 9.74001 12.43 9.76001C12.62 9.78001 12.81 9.81 13 9.84C13.04 9.84 13.05 9.85999 13.05 9.89999C13.05 10.01 13.05 10.12 13.05 10.23C13.05 10.34 13.05 10.45 13.05 10.55C13.05 10.58 13.04 10.6 13.01 10.62C12.75 10.81 12.47 10.93 12.15 10.96C12.02 10.97 11.89 10.96 11.76 10.92C11.62 10.87 11.52 10.76 11.48 10.61H11.49ZM7.58002 10.59C7.58002 10.59 7.53998 10.55 7.53998 10.51C7.53998 10.19 7.53998 9.87001 7.53998 9.54001V8.57001C7.53998 8.57001 7.55002 8.52 7.58002 8.5C7.89002 8.28 8.24 8.17001 8.62 8.20001C8.96 8.22001 9.24001 8.39001 9.39001 8.79001C9.48001 9.03001 9.5 9.28999 9.5 9.54999C9.5 9.78999 9.47997 10.02 9.40997 10.25C9.24997 10.74 8.89999 10.93 8.42999 10.9C8.10999 10.89 7.83001 10.76 7.57001 10.58L7.58002 10.59Z" fill="currentColor"/>
</svg>

<svg xmlns="http://www.w3.org/2000/svg" width="24" height="24" fill="none"><path fill="currentColor" d="M18 5H6C4 5 3 6 3 8v8c0 2 1 3 3 3h12c2 0 3-1 3-3V8c0-2-1-3-3-3Zm-3.72 2.74h.52c.07 0 .12.04.15.11.05.13.1.26.14.39.3.82.59 1.64.89 2.45 0 .01.01.03.02.05.06-.18.12-.34.18-.51l.8-2.29s.02-.06.04-.09c.03-.08.09-.12.18-.12h.46c.07 0 .1.04.08.1 0 .04-.02.08-.04.13l-1.62 4.11c-.06.14-.13.29-.21.42-.2.34-.51.5-.9.49-.13 0-.26-.02-.39-.05-.13-.02-.17-.08-.17-.21v-.23c0-.08.04-.11.12-.11.06 0 .11.02.17.02.12.01.24 0 .35-.02.16-.05.28-.16.35-.31.08-.17.14-.34.21-.51.04-.1.03-.17 0-.27l-1.35-3.33a.736.736 0 0 1-.04-.14c-.01-.06.02-.1.08-.1l-.02.02Zm-3.43 2.19c.14-.29.38-.46.67-.57.25-.08.5-.1.76-.09.25.01.49.05.73.11h.03v-.6c0-.13-.04-.27-.12-.37-.1-.13-.24-.17-.39-.19-.28-.04-.57-.02-.85.03-.18.04-.36.08-.54.13-.11.03-.15 0-.16-.11v-.23c0-.09.04-.15.12-.18.14-.05.27-.1.41-.13.22-.06.44-.08.66-.1h.34l.25.03c.17.02.34.07.5.16.27.16.39.4.43.69.01.1.02.2.02.3v2.49c0 .06-.05.1-.11.11h-.37c-.07 0-.11-.05-.12-.12-.02-.08-.03-.16-.04-.25-.02.01-.03.02-.04.03-.27.22-.58.37-.92.42-.3.04-.6.02-.87-.13a.947.947 0 0 1-.49-.73c-.03-.24-.02-.48.09-.71l.01.01Zm-4.02-2c0-.16.03-.19.19-.19h.27c.11 0 .16.05.18.15l.03.19c0 .01 0 .02.01.03.05-.04.11-.08.16-.12.26-.19.55-.31.87-.35.03 0 .07 0 .1-.01h.19l.22.03c.49.1.81.4 1 .84.16.36.2.75.19 1.14-.01.35-.08.69-.24 1.01-.21.42-.54.71-1 .8-.52.1-.99-.01-1.4-.35-.01-.01-.03-.02-.05-.04v1.73c0 .07-.04.11-.11.11h-.48c-.07 0-.11-.05-.11-.11V7.93h-.02Zm10.89 6.67c-.06.07-.14.12-.22.17-.7.48-1.47.83-2.28 1.1-.56.18-1.13.31-1.72.4-.4.06-.81.1-1.22.11h-.6c-.08 0-.16 0-.25-.01-.39-.02-.77-.06-1.15-.12-.63-.1-1.24-.26-1.84-.48-1.24-.45-2.35-1.11-3.34-1.99-.04-.04-.07-.09-.1-.13v-.05c.05-.1.12-.11.22-.06.24.13.47.26.71.38.93.47 1.91.82 2.92 1.06.48.11.96.21 1.45.27.72.1 1.45.14 2.18.12.4-.01.8-.04 1.19-.09 1.29-.15 2.54-.48 3.74-.98.07-.03.13-.05.21-.03.15.04.21.21.09.33h.01Zm1.28-.69c-.01.08-.03.17-.05.25-.1.46-.27.9-.57 1.27-.08.11-.19.21-.29.31-.03.03-.07.05-.11.06-.07.01-.1-.03-.09-.1 0-.02.01-.05.02-.07.14-.34.27-.68.36-1.03.05-.17.09-.35.08-.53 0-.12-.06-.21-.17-.24a1.91 1.91 0 0 0-.33-.06c-.26-.02-.52 0-.79.02l-.53.06h-.05c-.04 0-.07 0-.08-.04 0-.03 0-.07.01-.09.02-.03.05-.06.08-.08.28-.19.59-.3.92-.36.3-.05.6-.07.9-.04.16.01.33.04.48.09.1.03.19.08.21.19v.4-.01Zm-7.51-3.3a.664.664 0 0 1 0-.44c.05-.19.19-.3.37-.36.19-.06.38-.07.57-.05.19.02.38.05.57.08.04 0 .05.02.05.06v.65c0 .03-.01.05-.04.07a1.7 1.7 0 0 1-.86.34c-.13.01-.26 0-.39-.04a.438.438 0 0 1-.28-.31h.01Zm-3.91-.02s-.04-.04-.04-.08V8.57s.01-.05.04-.07c.31-.22.66-.33 1.04-.3.34.02.62.19.77.59.09.24.11.5.11.76 0 .24-.02.47-.09.7-.16.49-.51.68-.98.65-.32-.01-.6-.14-.86-.32l.01.01Z"/></svg>
